X:1
T:Title
%%score 1 2
L:1/8
M:4/2
K:C
V:1 treble nm="Part_1"
V:2 bass nm="Part_2"
V:1
 z2 D2 F6 ED E3 E | E4 z2 F/E/F/G/ A6 GF | G3 G G4 z4 A4- | A2 E2 E4 z AEF GFFE | %4
 F2 GA E/F/G/F/ E2 D8 | z/ A,/B,/C/ D/E/F/G/ A6 E2 E4 | z AEF GFFE F2 GA E/F/G/F/ E2 | %7
 D8 z2 A2 EEED | E3 E E4 EEFG A2 GF | GE A3 AA^G A2 F3 FFE | %10
[M:6/2] F2 D2 E/F/G/A/ _B4 E/F/G/F/ E3 D !fermata!D8 |[M:4/2] z AFF A6 GF G4 | %12
[M:6/2] G8 G4 E6 E2 =F4 | G4 G4 E4 F6 F2 G4 |[M:4/2] A4 A4 z2 DE FGAF | GG c4 _BA B2 G4 FE | %16
[M:6/2] F2 DEFGAFGE F3 G E2 !fermata!D8 |[M:4/2] z2 AG FE FD G2 GF ED EC | %18
[M:6/2] F2 A/G/F/E/ D2 _B/A/G/F/ E2 F/G/A/D/ E4 D8 |[M:6/2] D4 F4 G4 A8 F4 | %20
 G4 G4 c4 _B4 A2 B2 c2 B2 | A8 G4 G8 G4 | F4 E2 F2 G2 F2 E8 E4 | D8 A4 F4 D4 G4 | E4 C4 c4 c8 _B4 | %25
 _B8 A4 A8 G4 | F6 D2 E2 F2 G4 G2 E2 F2 G2 | A8 G4 F8 G4 |[M:3/2] _B4 A8 | %29
[M:6/2] G2 F2 GA _BG A2 D2 EF GE F2 DE FG AF |[M:4/2] G2 CD EF GE F2 GA _BA GF | %31
 E2 A2 _B/A/G/F<ED/ !fermata!D8 | z DE>F G4- GF/E/ F/G/A/D/ E4 | D16 |] %34
V:2
 D,8 D,4 A,,4 | A,,4 F,,4 F,,8 | C,8 A,,8- | A,,8 A,,4 G,,4 | D,2 _B,,2 G,,2 A,,2 D,8 | A,,8 A,,8 | %6
 A,,4 G,,4 D,2 _B,,2 G,,2 A,,2 | D,8 A,,8- | A,,8 A,,2 G,,2 F,,4 | %9
 C,2 A,,2 D,2 E,2 A,,2 D,2 _B,,2 C,2 |[M:6/2] F,,2 _B,,2 G,,4 G,,4 A,,4 !fermata!D,8 | %11
[M:4/2] D,8 D,4 C,4 |[M:6/2] C,8 C,4 C,8 A,,4 | G,,8 A,,4 D,8 _B,,4 | %14
[M:4/2] A,,8 _B,,2 A,,G,, F,,4 | C,8 G,,8 |[M:6/2] D,8 C,2 _B,,2 G,,2 A,,2 !fermata!D,8 | %17
[M:4/2] D,8 B,,4 C,4 |[M:6/2] A,,4 _B,,2 G,,2 A,,2 F,,2 G,,2 A,,2 !fermata!D,8 | %19
[M:6/2] D,8 C,4 F,8 D,4 | C,8 A,,4 G,,12 | D,8- D,4 G,,8 C,4 | D,12 A,,12 | D,12 D,8 B,,4 | %24
 C,12- C,12 | D,8 E,4 F,8 E,4 | D,8 C,4 B,,8 C,4 | F,,8 G,,4 _B,,8 G,,4 |[M:3/2] G,,4 D,8 | %29
[M:6/2] G,,2 D,2 _B,,2 C,2 F,,2 B,,2 G,,2 A,,2 D,8 |[M:4/2] C,8 _B,,2 A,,2 G,,4 | %31
 A,,2 F,,2 G,,2 A,,2 !fermata!D,8 | G,,8 A,,8 | D,16 |] %34

